X:1
T:Title
%%score { ( 1 3 5 ) | ( 2 4 ) }
L:1/8
Q:1/4=92
M:3/4
K:C
V:1 treble nm="Grand Piano"
V:3 treble 
V:5 treble 
V:2 bass 
V:4 bass 
V:1
 [EG]3 [EA] [EB][Ec] | [Fc]>B B2 A2 | G3 A GD | E6 | [CE]3 [CE] [EA]c | c>B [CA]2 c2 | c3 c BA | %7
w: Herbert~G.~Tovey * * *|||||||
[M:7/8] G-G-G- G- G2- G/ z/ |[M:3/4] [Ec]4 z2 | [DF]6 | [FB]4 z2 | E6 | G,2 z F [CEG][CEG] | %13
w: ||||||
 [CFA][D^GB] c4 | d3 A cB | [Ec]6 |] %16
w: |||
V:2
 [C,C]3 [C,C] [C,C][C,G,] | [D,G,]>[K:treble][G,DF] [G,DF]2 [G,CF]2 | %2
 [G,B,F]3 [G,CF] [G,B,F][K:bass][G,B,] | C2 z2 z2 | [A,,A,]3 [A,,A,] [C,A,][E,A,E] | %5
 [E,^G,E]>[E,G,D] [A,,A,]2 [A,E]2 | [D,^F,D]3 [D,F,E] [D,G,D][D,F,C] | %7
[M:7/8] z2[K:treble] G,- G,- G,3 |[M:3/4][K:bass] C,2 z E [C,C]2 | [G,B,]2 G,2 G,2 | %10
 G,2 z[K:treble] F ED | [C,C]2 C,2 C,2 | C,2 z D C,C, | F,E,[K:treble] [A,CE]4 | %14
 [F,A,F]3 [F,CF] [G,CF][G,DF] | z2 A,2 G,2 |] %16
V:3
 x6 | x6 | x6 | z2 G,4 | x6 | x6 | x6 |[M:7/8] z2 D2 z z2 |[M:3/4] C2 z B [EA][EG] | z2 B,2 B,2 | %10
 D2 z A GF | z2 A,2 G,2 | [CE]4 z2 | x6 | x6 | C2 z2 z2 |] %16
V:4
 x6 | x3/2[K:treble] x9/2 | x5[K:bass] x | C,6 | x6 | x6 | x6 |[M:7/8] G,,2[K:treble] z2 F3 | %8
[M:3/4][K:bass] z2 C,2 z2 | x6 | z2 G,2[K:treble] [G,B,]2 | x6 | z2 C,2 z2 | x2[K:treble] x4 | x6 | %15
 C,6 |] %16
V:5
 x6 | x6 | x6 | x6 | x6 | x6 | x6 |[M:7/8] [G,B,]2 B,- B,- B,3 |[M:3/4] z2 G,2 z2 | x6 | z2 D2 z2 | %11
 x6 | z2 G,2 z2 | x6 | x6 | x6 |] %16

